X:3
T:April In Paris
C:Vernon Duke
L:1/4
M:C
I:linebreak $
K:C
"Dø" z2"Db7" (3F F F |"C" ^D E"C6" z2 |"Dø" z2"Db7" (3F F F |"C" ^D E"C6" z2 |$
"C" z2"Dm" (3D D D |"D#o" B, C"Em" (3E G B |"Gm" d4 |"C7" z4 |$"F" z2 (3d d d |"Bb7" B c z2 |
"Em" z2 (3d d d |"Am" B c z2 |$"Gbø" z2 (3c c c |"B7" A B z c |"E+" e4 |"E7" z4 |$
"Gbø" e2"Fo" (3d ^A B |"Em" d c"Ebo" c2 |"Dm" (3c ^A B"Db7" d c |"C" c2"C6" z2 |$
"Bø" e2"E7" (3d ^A B |"Am" d c"Am/G" c2 |"F#ø" (3c ^G A"B7" c B |"E7" ^G2"Dm" G"G7" z |$
"Dø" z2"G7" (3F F F |"C" ^D E"C6" z2 |"Eø" z2"A7" (3^A ^A ^A |"Dm" ^G A"A7" z2 |$
"D7" z2 (3d d d |"Dm" B c"G7" z d |"C" c4 | z4 |]

